hornpipes/bobbycaseys.htmlhornpipes/bobbycaseys.htmlhornpipes/bobbycaseys.htmlhornpipes/bobbycaseys.htmlhornpipes/bobbycaseys.htmlhornpipes/bobbycaseys.htmlhornpipes/bobbycaseys.html<P ALIGN=Right>Sarah Allen
hornpipes/bobbycaseys.htmlhornpipes/bobbycaseys.html<PRE>T:A Quiet Autumn
T:A Quiet Autumn
M:12/8
L:1/8
C:Sarah Allen
R:jig
D:Flook: Flatfish
Z:Devin McCabe
K:G
BFG d2B edd d c/2B/2A|G2D GAE EDD DEG|
!BFG d2B edd deg|ace b2g- g (3efg fdB|
!BFG d2B edd d c/2B/2A|G2D GAE EDD DEG|
!BFG d2B edd deg|afg efd e B/2c/2d BcA|
!Bcd f2B cdf fee|ceg abb b2a agf|
!Bcd f2B cdf fee|ace b2g- g (3efg fdB|
!Bcd f2B cdf fee|ceg abb b2a agf|
!Bcd f2B cdf fee|afg efd e B/2c/2d BcA||

%  ABC2Win Version 2.1 12/26/2001</PRE>
hornpipes/bobbycaseys.htmlhornpipes/bobbycaseys.htmlhornpipes/bobbycaseys.htmlhornpipes/bobbycaseys.htmlhornpipes/bobbycaseys.htmlhornpipes/bobbycaseys.html